X: 7
T: Fisher's Hornpipe
O: James Fishar 1778
R: hornpipe, reel
Z: 1997 by John Chambers <jc:trillian.mit.edu>
M: C|
L: 1/8
K: D
(3A/B/c/ \
| "D"dAFD "G"GBAG | "D"FDFD "G"GBAG | "D"FDFD "A7(C)"GEGE | "D"FDFD "A7"EABc | "D"dAFD "G"GBAG |
| "D"FDFD "G"GBAG | "D"FGAB "A7"cdec | "D"d2d2 d2 :: cd | "A"ecAc egfe | "D"fdAd fagf |
| "A"ecAc efgf | "E7"edcB "A"A2A2 | "G"BGDG BdcB | "D"AFDF AFdA | "G"BdcB "A7"AGFE | "D"D2[d2D2] [d2D2] :|

%%sep 2 1 500

